X:4
T:Blackberry Blossom
M:2/4
L:1/16
Q:120
R:reel
P:AABB
K:G
P:A
"G" gbag "D"fagf | "C"egfe "G"dBAG | "C"DEFG "G"ABcA | "G"GABc "D"d4|
"G" gbag "D"fagf | "C"egfe "G"dBAG | "C"DEFG "G"ABcd | "G"B2[BG][BG] [B4G4] :|
P:B
"Em" [BE]eBe deBe | [BE]eBe deBe |  [BE]eBe deBe | "B7"fefg agfe |
"Em" [BE]eBe deBe | [BE]eBe deBe | "C"cBcd ecde | "D"d^cdf "G"g4 :|
